contributed-vectors/hex_installer.svg

<?xml version="1.0" encoding="UTF-8" standalone="no"?>
<svg
   xmlns:dc="http://purl.org/dc/elements/1.1/"
   xmlns:cc="http://creativecommons.org/ns#"
   xmlns:rdf="http://www.w3.org/1999/02/22-rdf-syntax-ns#"
   xmlns:svg="http://www.w3.org/2000/svg"
   xmlns="http://www.w3.org/2000/svg"
   xmlns:sodipodi="http://sodipodi.sourceforge.net/DTD/sodipodi-0.dtd"
   xmlns:inkscape="http://www.inkscape.org/namespaces/inkscape"
   width="100%"
   height="100%"
   viewBox="0 0 192 192"
   version="1.1"
   xml:space="preserve"
   style="fill-rule:evenodd;clip-rule:evenodd;stroke-linejoin:round;stroke-miterlimit:2;"
   id="svg25"
   sodipodi:docname="hex_installer.svg"
   inkscape:version="1.0.1 (3bc2e813f5, 2020-09-07)"
   inkscape:export-filename="/home/jphilippe/github/delta/android/contributed-vectors/hex_installer.png"
   inkscape:export-xdpi="96"
   inkscape:export-ydpi="96"><metadata
   id="metadata31"><rdf:RDF><cc:Work
       rdf:about=""><dc:format>image/svg+xml</dc:format><dc:type
         rdf:resource="http://purl.org/dc/dcmitype/StillImage" /></cc:Work></rdf:RDF></metadata><defs
   id="defs29">
        
        
    </defs><sodipodi:namedview
   pagecolor="#ffffff"
   bordercolor="#666666"
   borderopacity="1"
   objecttolerance="10"
   gridtolerance="10"
   guidetolerance="10"
   inkscape:pageopacity="0"
   inkscape:pageshadow="2"
   inkscape:window-width="1884"
   inkscape:window-height="1052"
   id="namedview27"
   showgrid="false"
   inkscape:zoom="3.3697917"
   inkscape:cx="96"
   inkscape:cy="96"
   inkscape:window-x="36"
   inkscape:window-y="0"
   inkscape:window-maximized="1"
   inkscape:current-layer="svg25" />
    <g
   transform="translate(8,8)"
   id="g4"
   style="fill:#56595b;fill-opacity:1">
            <path
   d="m 164.5,21.5 c 0,-5.519 -4.481,-10 -10,-10 h -133 c -5.519,0 -10,4.481 -10,10 v 133 c 0,5.519 4.481,10 10,10 h 133 c 5.519,0 10,-4.481 10,-10 z"
   style="fill:#56595b;fill-opacity:1"
   id="path2" />
        </g><g
   transform="matrix(0.851919,0,0,0.851919,14.2158,14.2158)"
   id="g22">
            <g
   transform="matrix(0,-1,0.954855,0,4.15134,171.423)"
   id="g8">
                <rect
   x="80.760002"
   y="65.521004"
   width="10.166"
   height="60.960999"
   style="fill:#98dc9a"
   id="rect6" />
            </g>
            <g
   transform="matrix(0,-1,0.954855,0,4.15134,191.993)"
   id="g12">
                <rect
   x="80.760002"
   y="65.521004"
   width="10.166"
   height="60.960999"
   style="fill:#98dc9a"
   id="rect10" />
            </g>
            <path
   d="m 80.76,71.03 10.167,-5.509 v 60.96 L 80.76,120.972 v 5.509 -60.96 z"
   style="fill:#98dc9a"
   id="path14" />
            <g
   transform="matrix(-1,0,0,1,191.977,0)"
   id="g18">
                <path
   d="m 80.76,71.03 10.167,-5.509 v 60.96 L 80.76,120.972 v 5.509 -60.96 z"
   style="fill:#98dc9a"
   id="path16" />
            </g>
            <path
   d="M 96,155.162 42.792,125.581 V 66.419 L 96,36.838 149.208,66.419 v 34.647 H 138.727 V 72.246 L 96,48.492 53.273,72.246 v 47.508 L 96,143.508 Z"
   style="fill:#9abeff"
   id="path20" />
        </g>
</svg>

<?xml version="1.0" encoding="UTF-8" standalone="no"?>
<!DOCTYPE svg PUBLIC "-//W3C//DTD SVG 1.1//EN" "http://www.w3.org/Graphics/SVG/1.1/DTD/svg11.dtd">
<svg width="100%" height="100%" viewBox="0 0 192 192" version="1.1" xmlns="http://www.w3.org/2000/svg" xmlns:xlink="http://www.w3.org/1999/xlink" xml:space="preserve" xmlns:serif="http://www.serif.com/" style="fill-rule:evenodd;clip-rule:evenodd;stroke-linejoin:round;stroke-miterlimit:2;">
    <g id="Layer1">
        <g transform="matrix(1,0,0,1,8,8)">
            <path d="M164.5,21.5C164.5,15.981 160.019,11.5 154.5,11.5L21.5,11.5C15.981,11.5 11.5,15.981 11.5,21.5L11.5,154.5C11.5,160.019 15.981,164.5 21.5,164.5L154.5,164.5C160.019,164.5 164.5,160.019 164.5,154.5L164.5,21.5Z" style="fill:rgb(74,74,74);"/>
        </g>
        <g transform="matrix(0.851919,0,0,0.851919,14.2158,14.2158)">
            <g transform="matrix(6.12323e-17,-1,0.954855,5.8468e-17,4.15134,171.423)">
                <rect x="80.76" y="65.521" width="10.166" height="60.961" style="fill:rgb(152,220,154);"/>
            </g>
            <g transform="matrix(6.12323e-17,-1,0.954855,5.8468e-17,4.15134,191.993)">
                <rect x="80.76" y="65.521" width="10.166" height="60.961" style="fill:rgb(152,220,154);"/>
            </g>
            <path d="M80.76,71.03L90.927,65.521L90.927,126.481L80.76,120.972L80.76,126.481L80.76,65.521L80.76,71.03Z" style="fill:rgb(152,220,154);"/>
            <g transform="matrix(-1,0,0,1,191.977,0)">
                <path d="M80.76,71.03L90.927,65.521L90.927,126.481L80.76,120.972L80.76,126.481L80.76,65.521L80.76,71.03Z" style="fill:rgb(152,220,154);"/>
            </g>
            <path d="M96,155.162L42.792,125.581L42.792,66.419L96,36.838L149.208,66.419L149.208,101.066L138.727,101.066L138.727,72.246L96,48.492L53.273,72.246L53.273,119.754L96,143.508L96,155.162Z" style="fill:rgb(154,190,255);"/>
        </g>
    </g>
</svg>
